X:63
T:Sonatina in C Major
C:Beethoven
N:TablEdited by Ken Yearick
L:1/8
Q:1/4=120
M:2/4
K:C
C/E/G/c/ e/g/c'/g/ | a/f/c'/a/ g/e/c'/g/ | f/d/g/f/ e/c/g/e/ | d/c/B/A/ G/F/E/D/ | 
C/E/G/c/ e/g/c'/g/ | a/f/c'/a/ g/e/c'/g/ | f/a/g/f/ e/d/c/B/ | c/G/E/G/ CG, | 
G,/B,/D/G/ B/d/g/f/ | e/d/c/B/ c/d/e/c/ | B/G/^F/G/ B/d/g/f/ | e/d/c/B/ c/d/e/^f/ | 
g/^f/a/f/ g/f/a/f/ | g/f/d/B/ G/F/D/B,/ | C/E/G/c/ e/g/c'/g/ | a/f/c'/a/ g/e/c'/g/ | 
f/a/g/f/ e/d/c/B/ | c/G/E/G/ Cc/d/ | [ee][f/f/][e/e/] d[e/e/]d/ | cd/c/ Bc/B/ | 
[AA][B/_B/][A/A/] G[A/A/]G/ | ^F3D | D3E/^F/ | G[AA] Bc | dd [e/e/]d/^c/d/ | B2 G2 | 
zE [ee][ee] | [e4e4] | z^F ^ff | B^c dB | cd [ee]^c | d[ee] [ff][gg] | a[gg] [ff][ee] | 
dc BA | GF ED | C/E/G/c/ e/g/c'/g/ | a/f/c'/a/ g/e/c'/g/ | f/d/g/f/ e/c/g/e/ | 
d/c/B/A/ G/F/E/D/ | C/E/G/c/ e/g/c'/g/ | a/f/c'/a/ g/e/c'/g/ | f/a/g/f/ e/d/c/B/ | 
c/G/E/G/ CG, | G,/B,/D/G/ B/d/g/f/ | [e/e/]d/c/B/ c/d/[e/e/]c/ | B/G/^F/G/ B/d/g/f/ | 
[e/e/]d/c/B/ c/d/[e/e/]^f/ | g/^f/a/f/ g/f/a/f/ | g/f/d/B/ G/F/D/B,/ | C/E/G/c/ e/g/c'/g/ | 
a/f/c'/a/ g/e/c'/g/ | f/a/g/f/ [e/e/]d/c/B/ | c/G/E/G/ Cg | g3^d/c/ | B4 | g3^d/c/ | 
B4 | g3^d/c/ | c'3^g/f/ | dd dd | ^d3G | gg z^d/c/ | B4 | ^f/g/f/g/ =f/^d/=d/c/ | 
B4 | gg z^d/c/ | c'c' z^g/f/ | dd dd | ^d4 | z3_b | _b3g/f/ | e4 | fc' z^g/=g/ | 
^f4 | g^g z=g/f/ | ^dd z=d/c/ | [BD][BD] [BD][BD] | [c4^D4] | z3_b | _b3g/f/ | 
e4 | fc' z^g/=g/ | ^f4 | g^g z=g/f/ | ^dd z=d/c/ | [BD][BD] [BD][BD] | [c4^D4] | 
z3G, | C/E/G/c/ e/g/c'/g/ | a/f/c'/a/ g/e/c'/g/ | f/d/g/f/ e/c/g/e/ | d/c/B/A/ G/F/E/D/ | 
C/E/G/c/ e/g/c'/g/ | a/f/c'/a/ g/e/c'/g/ | f/a/g/f/ e/d/c/B/ | c/G/E/G/ CG, | 
G,/B,/D/G/ B/d/g/f/ | e/d/c/B/ c/d/e/c/ | B/G/^F/G/ B/d/g/f/ | e/d/c/B/ c/d/e/^f/ | 
g/^f/a/f/ g/f/a/f/ | g/f/d/B/ G/F/D/B,/ | C/E/G/c/ e/g/c'/g/ | a/f/c'/a/ g/e/c'/g/ | 
f/a/g/f/ e/d/c/B/ | cg/c/ a/c/F/c/ | E/c/g/c/ f/B/D/B/ | c/B/e/c/ a/c/A/c/ | E/c/e/c/ f/B/D/B/ | 
C/c/e/c/ a/c/F/c/ | F/d/b/d/ c'/^d/^F/d/ | c'/b/c'/b/ c'e | ad fB | c4 | z3G | 
G3A/B/ | cd [ee][ff] | [gg][gg] [g/g/][f/f/][e/e/]d/ | c/[e/e/]g/[e/e/] d/[f/f/]B/d/ | 
c/G/E/C/ D/F/B/d/ | c/[e/e/]g/[e/e/] d/[f/f/]B/d/ | c/G/E/C/ D/F/B,/D/ | C/G,/C/E/ c/e/g/e/ | 
[c'4e4c4G,4] | 
 

